X:1
T:R. W. Forcier
T:Forcier
%%score { ( 1 2 ) | ( 3 4 ) }
L:1/8
M:4/4
K:F
V:1 treble 
V:2 treble 
V:3 bass 
V:4 bass 
V:1
 F2 F2 E2 D2 | F4 E4 | F2 F2 B2 A2 | A4 G4 | A2 A2 c2 A2 | (B2 G2) (D2 E2) | F2 E2 D2 F2 | G4 F4 | %8
 F8 F8 |] %9
V:2
 A,8 | B,8 | C4 D4- | (D2 F2) E4 | [C-F]4 [C^FA]4 | [B,-D]4 B,4 | C4 B,4- | (B,4 [A,C]4) | D8 C8 |] %9
V:3
 C,8 | C,8 | F,8 | (F,2 D,2) E,4 | F,4 D,4 | G,8 | F,8 | (F,2 E,2) F,4 | B,8 A,8 |] %9
V:4
 F,,8 | G,,8 | A,,4 B,,4 | =B,,4 C,4 | F,4 D,4 | G,,4 C,4 | A,,4 B,,2 G,,2 | C,2 C,,2 F,,4 | %8
 B,,8 F,8 |] %9

